X: 10602
Q: "Moderate."
M: C
L: 1/8
K: Gm
d3c (dc)(BA) | B2(AG) ^F3d |\
(dc)(cd) B3A | B6 f2 |\
c3d (ed)(cB) | (cA)(BG) ^F3d |\
(ef)e>d c3d | d6 |]
d2 |\
d2(gf) (ed)(cB) | A6 d2 |\
e2(dc) f2 (3(^f/=e/f/) | gdc>B A3d |\
(ed)(cB) {A}G3^F | G6 |]


